build/img/sprite/icon-money.svg

<svg id="money" width="35" height="35" viewBox="0 0 35 35" fill="none" xmlns="http://www.w3.org/2000/svg">
<g id="Group 366">
<g id="Vector">
<mask id="path-1-inside-1_215_11016" fill="white">
<path d="M13.6027 16.5228C13.6027 16.3938 13.6027 16.2609 13.6027 16.1271C13.6018 12.6138 13.6114 9.10156 13.5941 5.58833C13.5873 4.22694 14.2509 3.26225 15.2452 2.47869C16.4874 1.49923 17.9215 0.931247 19.4347 0.588684C23.4449 -0.31891 27.4117 -0.245082 31.283 1.28956C32.4374 1.74729 33.4877 2.39108 34.2747 3.40301C34.7463 4.00939 34.9903 4.69353 34.9893 5.47808C34.9835 13.0194 34.9652 20.5607 34.9999 28.102C35.0067 29.548 34.4406 30.6003 33.3729 31.4459C32.0719 32.4765 30.5645 33.0554 28.9789 33.4019C25.0748 34.2563 21.2161 34.1746 17.4412 32.7C17.3265 32.6557 17.1345 32.6399 17.0545 32.7069C15.7718 33.7858 14.2566 34.3252 12.6605 34.6372C9.75557 35.2062 6.86802 35.1324 4.02773 34.2268C2.98805 33.895 2.01107 33.4265 1.17779 32.6892C0.40141 32.0021 -0.010409 31.1713 0.00019994 30.0825C0.0310622 26.9631 0.0165955 23.8436 0.00405772 20.7241C0.000199936 19.8411 0.342578 19.1284 0.93957 18.5279C1.92813 17.5337 3.16069 16.9884 4.47041 16.6202C7.39557 15.7983 10.3381 15.7963 13.2883 16.4814C13.3587 16.4982 13.4272 16.5198 13.4986 16.5346C13.5208 16.5395 13.5458 16.5297 13.6018 16.5218L13.6027 16.5228ZM24.0487 9.66561C25.8879 9.66167 27.4888 9.49531 29.057 9.0868C30.4506 8.72356 31.8067 8.24516 32.9158 7.26669C33.2707 6.95366 33.589 6.55203 33.8021 6.12777C34.2226 5.29006 33.9304 4.35687 33.0874 3.56839C32.4037 2.92756 31.6012 2.47967 30.7361 2.16565C26.6671 0.686137 22.5644 0.665466 18.4491 1.94909C17.3274 2.29854 16.2714 2.80845 15.4169 3.6619C14.3319 4.74472 14.3367 5.95255 15.4169 7.04028C16.0438 7.67127 16.8018 8.09553 17.6062 8.43416C19.7395 9.33191 21.9818 9.6351 24.0487 9.6666V9.66561ZM33.9564 7.688C32.7528 8.84661 31.3495 9.49236 29.8431 9.92549C26.5977 10.8587 23.3157 10.9168 20.024 10.2484C18.0604 9.84969 16.2019 9.16752 14.6887 7.74411C14.6791 7.73427 14.6482 7.74805 14.6067 7.75395C14.6067 8.76786 14.6434 9.78669 14.5961 10.8016C14.5508 11.7663 14.9424 12.4799 15.6358 13.0696C16.4045 13.7232 17.2908 14.1642 18.233 14.4733C22.06 15.7294 25.9158 15.7589 29.7784 14.6662C30.9772 14.3276 32.1143 13.8266 33.0653 12.9711C33.4973 12.5823 33.913 12.1295 33.9391 11.534C33.994 10.2759 33.9554 9.01395 33.9554 7.68603L33.9564 7.688ZM9.19137 17.011C7.56435 17.0278 6.03667 17.1862 4.55238 17.6509C3.52332 17.9737 2.53476 18.3882 1.73427 19.155C0.766934 20.0823 0.753432 21.1149 1.75549 22.0028C2.22035 22.4143 2.76816 22.7549 3.32657 23.0246C4.76938 23.7205 6.32021 23.9932 7.9019 24.0956C10.0825 24.2363 12.2284 24.0552 14.3 23.2953C15.142 22.9862 15.9386 22.5816 16.5819 21.924C17.4355 21.0499 17.4711 20.0862 16.5819 19.2593C16.0765 18.7898 15.468 18.396 14.8459 18.1017C13.0328 17.2463 11.0836 17.0376 9.19137 17.01V17.011ZM14.6193 16.7659C15.4419 17.2748 16.2299 17.7168 16.9667 18.2336C17.53 18.6293 17.9524 19.1924 18.1154 19.8815C18.2003 20.2417 18.3796 20.3697 18.6912 20.4652C20.2536 20.9436 21.8449 21.231 23.4767 21.2763C25.9737 21.3452 28.4234 21.0863 30.7718 20.1581C31.7314 19.7791 32.6342 19.2967 33.3421 18.5063C33.7346 18.0673 33.9863 17.5672 33.9824 16.952C33.9767 15.8593 33.9825 14.7676 33.9805 13.675C33.9805 13.6346 33.9564 13.5933 33.9352 13.5263C33.0865 14.3443 32.1172 14.9035 31.0592 15.2962C27.4107 16.6537 23.6764 16.7639 19.9035 16.0001C17.9871 15.6122 16.1768 14.9379 14.6926 13.5647C14.682 13.5549 14.6521 13.5687 14.6212 13.5726V16.7649L14.6193 16.7659ZM18.2263 27.2298C18.2263 27.5419 18.2427 27.849 18.2234 28.1532C18.1472 29.361 18.4703 30.6062 17.8704 31.7698C19.4675 32.3929 21.0917 32.7689 22.7698 32.8673C25.4838 33.0258 28.1524 32.7866 30.7168 31.7934C31.6668 31.4252 32.5599 30.9488 33.2755 30.1869C33.7433 29.6888 34.0056 29.1119 33.9892 28.4002C33.967 27.4188 33.9844 26.4364 33.9824 25.454C33.9824 25.3556 33.9661 25.2561 33.9564 25.1548C33.5687 25.453 33.2283 25.7474 32.8569 25.9934C32.4847 26.2386 32.096 26.4679 31.6909 26.6481C28.2662 28.1679 24.6919 28.3815 21.0473 27.85C20.1128 27.7132 19.1956 27.4464 18.2263 27.2298ZM18.2446 21.4397C18.2388 21.4821 18.2282 21.5303 18.2282 21.5775C18.2273 23.0019 18.234 24.4263 18.2205 25.8497C18.2176 26.1096 18.3671 26.146 18.5407 26.2021C20.0018 26.6796 21.4977 26.9759 23.0302 27.0526C25.6487 27.1845 28.2199 26.9316 30.6918 25.9787C31.6311 25.6164 32.5146 25.1479 33.2331 24.4096C33.7288 23.9007 34.0056 23.3051 33.9892 22.5659C33.968 21.5962 33.9844 20.6256 33.9834 19.656C33.9834 19.5655 33.9709 19.4739 33.9699 19.4582C33.2398 19.9139 32.5454 20.4554 31.769 20.8127C28.2652 22.4231 24.5878 22.5914 20.8486 22.0264C19.9748 21.8945 19.1174 21.6396 18.2456 21.4397H18.2446ZM17.2136 27.8086C16.5115 28.2024 15.8441 28.6434 15.1256 28.9643C13.6568 29.6209 12.0915 29.8867 10.4992 29.992C8.26164 30.1406 6.05306 29.9752 3.90428 29.2744C2.87136 28.9377 1.90498 28.4583 1.01383 27.6689C1.01383 28.5449 1.03987 29.3374 1.00612 30.1278C0.976219 30.8405 1.25302 31.3859 1.74585 31.8485C2.38527 32.45 3.14236 32.8516 3.95732 33.1272C7.23933 34.2366 10.5455 34.2524 13.8564 33.2749C14.8787 32.9727 15.8605 32.5386 16.5954 31.7196C16.8732 31.4095 17.149 30.9813 17.1857 30.5846C17.2715 29.6494 17.2136 28.7005 17.2136 27.8077V27.8086ZM1.01383 22.7755C1.01383 23.6605 1.0283 24.507 1.00901 25.3526C0.995508 25.9629 1.22987 26.4453 1.64362 26.8577C2.19624 27.408 2.86171 27.7791 3.57637 28.0439C6.94228 29.2891 10.3506 29.3246 13.7812 28.3579C14.7244 28.0921 15.6175 27.6984 16.3832 27.0536C16.9417 26.5841 17.2715 26.0121 17.23 25.2384C17.1992 24.6636 17.2242 24.0847 17.2242 23.5079C17.2242 23.2707 17.2242 23.0334 17.2242 22.7214C16.1373 23.6871 14.9414 24.26 13.6442 24.5602C12.5004 24.825 11.3305 25.0563 10.1635 25.1154C6.91721 25.2788 3.7789 24.89 1.01383 22.7765V22.7755Z"/>
</mask>
<path d="M13.6027 16.5228C13.6027 16.3938 13.6027 16.2609 13.6027 16.1271C13.6018 12.6138 13.6114 9.10156 13.5941 5.58833C13.5873 4.22694 14.2509 3.26225 15.2452 2.47869C16.4874 1.49923 17.9215 0.931247 19.4347 0.588684C23.4449 -0.31891 27.4117 -0.245082 31.283 1.28956C32.4374 1.74729 33.4877 2.39108 34.2747 3.40301C34.7463 4.00939 34.9903 4.69353 34.9893 5.47808C34.9835 13.0194 34.9652 20.5607 34.9999 28.102C35.0067 29.548 34.4406 30.6003 33.3729 31.4459C32.0719 32.4765 30.5645 33.0554 28.9789 33.4019C25.0748 34.2563 21.2161 34.1746 17.4412 32.7C17.3265 32.6557 17.1345 32.6399 17.0545 32.7069C15.7718 33.7858 14.2566 34.3252 12.6605 34.6372C9.75557 35.2062 6.86802 35.1324 4.02773 34.2268C2.98805 33.895 2.01107 33.4265 1.17779 32.6892C0.40141 32.0021 -0.010409 31.1713 0.00019994 30.0825C0.0310622 26.9631 0.0165955 23.8436 0.00405772 20.7241C0.000199936 19.8411 0.342578 19.1284 0.93957 18.5279C1.92813 17.5337 3.16069 16.9884 4.47041 16.6202C7.39557 15.7983 10.3381 15.7963 13.2883 16.4814C13.3587 16.4982 13.4272 16.5198 13.4986 16.5346C13.5208 16.5395 13.5458 16.5297 13.6018 16.5218L13.6027 16.5228ZM24.0487 9.66561C25.8879 9.66167 27.4888 9.49531 29.057 9.0868C30.4506 8.72356 31.8067 8.24516 32.9158 7.26669C33.2707 6.95366 33.589 6.55203 33.8021 6.12777C34.2226 5.29006 33.9304 4.35687 33.0874 3.56839C32.4037 2.92756 31.6012 2.47967 30.7361 2.16565C26.6671 0.686137 22.5644 0.665466 18.4491 1.94909C17.3274 2.29854 16.2714 2.80845 15.4169 3.6619C14.3319 4.74472 14.3367 5.95255 15.4169 7.04028C16.0438 7.67127 16.8018 8.09553 17.6062 8.43416C19.7395 9.33191 21.9818 9.6351 24.0487 9.6666V9.66561ZM33.9564 7.688C32.7528 8.84661 31.3495 9.49236 29.8431 9.92549C26.5977 10.8587 23.3157 10.9168 20.024 10.2484C18.0604 9.84969 16.2019 9.16752 14.6887 7.74411C14.6791 7.73427 14.6482 7.74805 14.6067 7.75395C14.6067 8.76786 14.6434 9.78669 14.5961 10.8016C14.5508 11.7663 14.9424 12.4799 15.6358 13.0696C16.4045 13.7232 17.2908 14.1642 18.233 14.4733C22.06 15.7294 25.9158 15.7589 29.7784 14.6662C30.9772 14.3276 32.1143 13.8266 33.0653 12.9711C33.4973 12.5823 33.913 12.1295 33.9391 11.534C33.994 10.2759 33.9554 9.01395 33.9554 7.68603L33.9564 7.688ZM9.19137 17.011C7.56435 17.0278 6.03667 17.1862 4.55238 17.6509C3.52332 17.9737 2.53476 18.3882 1.73427 19.155C0.766934 20.0823 0.753432 21.1149 1.75549 22.0028C2.22035 22.4143 2.76816 22.7549 3.32657 23.0246C4.76938 23.7205 6.32021 23.9932 7.9019 24.0956C10.0825 24.2363 12.2284 24.0552 14.3 23.2953C15.142 22.9862 15.9386 22.5816 16.5819 21.924C17.4355 21.0499 17.4711 20.0862 16.5819 19.2593C16.0765 18.7898 15.468 18.396 14.8459 18.1017C13.0328 17.2463 11.0836 17.0376 9.19137 17.01V17.011ZM14.6193 16.7659C15.4419 17.2748 16.2299 17.7168 16.9667 18.2336C17.53 18.6293 17.9524 19.1924 18.1154 19.8815C18.2003 20.2417 18.3796 20.3697 18.6912 20.4652C20.2536 20.9436 21.8449 21.231 23.4767 21.2763C25.9737 21.3452 28.4234 21.0863 30.7718 20.1581C31.7314 19.7791 32.6342 19.2967 33.3421 18.5063C33.7346 18.0673 33.9863 17.5672 33.9824 16.952C33.9767 15.8593 33.9825 14.7676 33.9805 13.675C33.9805 13.6346 33.9564 13.5933 33.9352 13.5263C33.0865 14.3443 32.1172 14.9035 31.0592 15.2962C27.4107 16.6537 23.6764 16.7639 19.9035 16.0001C17.9871 15.6122 16.1768 14.9379 14.6926 13.5647C14.682 13.5549 14.6521 13.5687 14.6212 13.5726V16.7649L14.6193 16.7659ZM18.2263 27.2298C18.2263 27.5419 18.2427 27.849 18.2234 28.1532C18.1472 29.361 18.4703 30.6062 17.8704 31.7698C19.4675 32.3929 21.0917 32.7689 22.7698 32.8673C25.4838 33.0258 28.1524 32.7866 30.7168 31.7934C31.6668 31.4252 32.5599 30.9488 33.2755 30.1869C33.7433 29.6888 34.0056 29.1119 33.9892 28.4002C33.967 27.4188 33.9844 26.4364 33.9824 25.454C33.9824 25.3556 33.9661 25.2561 33.9564 25.1548C33.5687 25.453 33.2283 25.7474 32.8569 25.9934C32.4847 26.2386 32.096 26.4679 31.6909 26.6481C28.2662 28.1679 24.6919 28.3815 21.0473 27.85C20.1128 27.7132 19.1956 27.4464 18.2263 27.2298ZM18.2446 21.4397C18.2388 21.4821 18.2282 21.5303 18.2282 21.5775C18.2273 23.0019 18.234 24.4263 18.2205 25.8497C18.2176 26.1096 18.3671 26.146 18.5407 26.2021C20.0018 26.6796 21.4977 26.9759 23.0302 27.0526C25.6487 27.1845 28.2199 26.9316 30.6918 25.9787C31.6311 25.6164 32.5146 25.1479 33.2331 24.4096C33.7288 23.9007 34.0056 23.3051 33.9892 22.5659C33.968 21.5962 33.9844 20.6256 33.9834 19.656C33.9834 19.5655 33.9709 19.4739 33.9699 19.4582C33.2398 19.9139 32.5454 20.4554 31.769 20.8127C28.2652 22.4231 24.5878 22.5914 20.8486 22.0264C19.9748 21.8945 19.1174 21.6396 18.2456 21.4397H18.2446ZM17.2136 27.8086C16.5115 28.2024 15.8441 28.6434 15.1256 28.9643C13.6568 29.6209 12.0915 29.8867 10.4992 29.992C8.26164 30.1406 6.05306 29.9752 3.90428 29.2744C2.87136 28.9377 1.90498 28.4583 1.01383 27.6689C1.01383 28.5449 1.03987 29.3374 1.00612 30.1278C0.976219 30.8405 1.25302 31.3859 1.74585 31.8485C2.38527 32.45 3.14236 32.8516 3.95732 33.1272C7.23933 34.2366 10.5455 34.2524 13.8564 33.2749C14.8787 32.9727 15.8605 32.5386 16.5954 31.7196C16.8732 31.4095 17.149 30.9813 17.1857 30.5846C17.2715 29.6494 17.2136 28.7005 17.2136 27.8077V27.8086ZM1.01383 22.7755C1.01383 23.6605 1.0283 24.507 1.00901 25.3526C0.995508 25.9629 1.22987 26.4453 1.64362 26.8577C2.19624 27.408 2.86171 27.7791 3.57637 28.0439C6.94228 29.2891 10.3506 29.3246 13.7812 28.3579C14.7244 28.0921 15.6175 27.6984 16.3832 27.0536C16.9417 26.5841 17.2715 26.0121 17.23 25.2384C17.1992 24.6636 17.2242 24.0847 17.2242 23.5079C17.2242 23.2707 17.2242 23.0334 17.2242 22.7214C16.1373 23.6871 14.9414 24.26 13.6442 24.5602C12.5004 24.825 11.3305 25.0563 10.1635 25.1154C6.91721 25.2788 3.7789 24.89 1.01383 22.7765V22.7755Z" fill="currentColor" stroke="#9D15A0" stroke-width="0.3" mask="url(#path-1-inside-1_215_11016)"/>
</g>
</g>
</svg>

<svg width="35" height="35" fill="none" xmlns="http://www.w3.org/2000/svg"><mask id="a" fill="#fff"><path d="M13.603 16.523v-.396c-.001-3.513.008-7.025-.009-10.539-.007-1.361.657-2.326 1.651-3.11 1.242-.979 2.677-1.547 4.19-1.89 4.01-.907 7.977-.833 11.848.702 1.154.457 2.205 1.101 2.992 2.113.471.606.715 1.29.714 2.075-.005 7.541-.024 15.083.01 22.624.008 1.446-.558 2.498-1.626 3.344-1.301 1.03-2.808 1.61-4.394 1.956-3.904.854-7.763.773-11.538-.702-.114-.044-.306-.06-.386.007-1.283 1.079-2.798 1.618-4.394 1.93-2.905.57-5.793.495-8.633-.41-1.04-.332-2.017-.8-2.85-1.538C.4 32.002-.01 31.171 0 30.082c.031-3.119.017-6.238.004-9.358-.004-.883.339-1.596.936-2.196.988-.994 2.22-1.54 3.53-1.908 2.926-.822 5.868-.824 8.818-.139.07.017.14.039.21.054.023.005.048-.005.104-.013Zm10.446-6.857c1.839-.004 3.44-.17 5.008-.58 1.394-.362 2.75-.84 3.859-1.82.355-.312.673-.714.886-1.138.42-.838.128-1.771-.715-2.56-.683-.64-1.486-1.088-2.35-1.402-4.07-1.48-8.173-1.5-12.288-.217-1.122.35-2.178.86-3.032 1.713-1.085 1.083-1.08 2.29 0 3.378.627.631 1.385 1.056 2.19 1.394 2.133.898 4.375 1.201 6.442 1.233v-.001Zm9.907-1.978c-1.203 1.159-2.607 1.804-4.113 2.237-3.245.934-6.527.992-9.819.323-1.964-.398-3.822-1.08-5.335-2.504-.01-.01-.04.004-.082.01 0 1.014.036 2.033-.01 3.048-.046.964.345 1.678 1.039 2.268.768.653 1.655 1.094 2.597 1.403 3.827 1.256 7.683 1.286 11.545.193 1.2-.338 2.336-.84 3.287-1.695.432-.389.848-.841.874-1.437.055-1.258.016-2.52.016-3.848l.001.002ZM9.191 17.011c-1.627.017-3.154.175-4.639.64-1.029.323-2.017.737-2.818 1.504-.967.927-.98 1.96.021 2.848a6.924 6.924 0 0 0 1.572 1.022c1.442.696 2.993.968 4.575 1.07 2.18.141 4.326-.04 6.398-.8.842-.309 1.639-.713 2.282-1.371.854-.874.89-1.838 0-2.665a6.933 6.933 0 0 0-1.736-1.157c-1.813-.856-3.762-1.064-5.655-1.092v.001Zm5.428-.245c.823.509 1.61.95 2.348 1.468.563.395.985.958 1.148 1.647.085.36.265.489.576.584 1.563.479 3.154.766 4.786.811 2.497.07 4.946-.19 7.295-1.118.96-.379 1.862-.861 2.57-1.652.393-.439.644-.939.64-1.554-.005-1.093 0-2.184-.002-3.277 0-.04-.024-.082-.045-.149-.849.818-1.818 1.377-2.876 1.77-3.648 1.358-7.383 1.468-11.155.704-1.917-.388-3.727-1.062-5.211-2.435-.011-.01-.04.004-.072.008v3.192h-.002Zm3.607 10.464c0 .312.017.619-.003.923-.076 1.208.247 2.453-.353 3.617 1.598.623 3.222.999 4.9 1.097 2.714.159 5.382-.08 7.947-1.074.95-.368 1.843-.844 2.559-1.606.467-.498.73-1.075.713-1.787-.022-.981-.005-1.964-.007-2.946 0-.098-.016-.198-.026-.3-.387.299-.728.593-1.1.84-.371.245-.76.474-1.165.654-3.425 1.52-7 1.733-10.644 1.202-.934-.137-1.851-.404-2.82-.62Zm.019-5.79c-.006.042-.017.09-.017.137 0 1.425.006 2.85-.008 4.273-.002.26.147.296.32.352 1.462.478 2.958.774 4.49.85 2.619.133 5.19-.12 7.662-1.073.94-.363 1.823-.831 2.541-1.57.496-.508.773-1.104.756-1.843-.021-.97-.005-1.94-.006-2.91 0-.09-.012-.182-.013-.198-.73.456-1.425.997-2.201 1.355-3.504 1.61-7.181 1.778-10.92 1.213-.874-.131-1.732-.386-2.603-.586h-.001Zm-1.031 6.369c-.702.393-1.37.834-2.088 1.155-1.47.657-3.034.923-4.627 1.028-2.237.149-4.446-.017-6.595-.718-1.033-.336-1.999-.816-2.89-1.605 0 .876.026 1.668-.008 2.459-.03.712.247 1.258.74 1.72.64.602 1.396 1.004 2.211 1.28 3.282 1.109 6.589 1.124 9.9.147 1.022-.302 2.004-.736 2.738-1.555.278-.31.554-.739.59-1.135.087-.936.029-1.884.029-2.777Zm-16.2-5.034c0 .886.014 1.732-.005 2.578-.013.61.22 1.092.635 1.505.552.55 1.218.921 1.932 1.186 3.366 1.245 6.775 1.28 10.205.314.943-.266 1.836-.66 2.602-1.304.559-.47.889-1.042.847-1.816-.03-.574-.006-1.153-.006-1.73v-.787a7.972 7.972 0 0 1-3.58 1.84c-1.144.264-2.313.495-3.48.554-3.247.164-6.385-.225-9.15-2.338v-.002Z"/></mask><path d="M13.603 16.523v-.396c-.001-3.513.008-7.025-.009-10.539-.007-1.361.657-2.326 1.651-3.11 1.242-.979 2.677-1.547 4.19-1.89 4.01-.907 7.977-.833 11.848.702 1.154.457 2.205 1.101 2.992 2.113.471.606.715 1.29.714 2.075-.005 7.541-.024 15.083.01 22.624.008 1.446-.558 2.498-1.626 3.344-1.301 1.03-2.808 1.61-4.394 1.956-3.904.854-7.763.773-11.538-.702-.114-.044-.306-.06-.386.007-1.283 1.079-2.798 1.618-4.394 1.93-2.905.57-5.793.495-8.633-.41-1.04-.332-2.017-.8-2.85-1.538C.4 32.002-.01 31.171 0 30.082c.031-3.119.017-6.238.004-9.358-.004-.883.339-1.596.936-2.196.988-.994 2.22-1.54 3.53-1.908 2.926-.822 5.868-.824 8.818-.139.07.017.14.039.21.054.023.005.048-.005.104-.013Zm10.446-6.857c1.839-.004 3.44-.17 5.008-.58 1.394-.362 2.75-.84 3.859-1.82.355-.312.673-.714.886-1.138.42-.838.128-1.771-.715-2.56-.683-.64-1.486-1.088-2.35-1.402-4.07-1.48-8.173-1.5-12.288-.217-1.122.35-2.178.86-3.032 1.713-1.085 1.083-1.08 2.29 0 3.378.627.631 1.385 1.056 2.19 1.394 2.133.898 4.375 1.201 6.442 1.233v-.001Zm9.907-1.978c-1.203 1.159-2.607 1.804-4.113 2.237-3.245.934-6.527.992-9.819.323-1.964-.398-3.822-1.08-5.335-2.504-.01-.01-.04.004-.082.01 0 1.014.036 2.033-.01 3.048-.046.964.345 1.678 1.039 2.268.768.653 1.655 1.094 2.597 1.403 3.827 1.256 7.683 1.286 11.545.193 1.2-.338 2.336-.84 3.287-1.695.432-.389.848-.841.874-1.437.055-1.258.016-2.52.016-3.848l.001.002ZM9.191 17.011c-1.627.017-3.154.175-4.639.64-1.029.323-2.017.737-2.818 1.504-.967.927-.98 1.96.021 2.848a6.924 6.924 0 0 0 1.572 1.022c1.442.696 2.993.968 4.575 1.07 2.18.141 4.326-.04 6.398-.8.842-.309 1.639-.713 2.282-1.371.854-.874.89-1.838 0-2.665a6.933 6.933 0 0 0-1.736-1.157c-1.813-.856-3.762-1.064-5.655-1.092v.001Zm5.428-.245c.823.509 1.61.95 2.348 1.468.563.395.985.958 1.148 1.647.085.36.265.489.576.584 1.563.479 3.154.766 4.786.811 2.497.07 4.946-.19 7.295-1.118.96-.379 1.862-.861 2.57-1.652.393-.439.644-.939.64-1.554-.005-1.093 0-2.184-.002-3.277 0-.04-.024-.082-.045-.149-.849.818-1.818 1.377-2.876 1.77-3.648 1.358-7.383 1.468-11.155.704-1.917-.388-3.727-1.062-5.211-2.435-.011-.01-.04.004-.072.008v3.192h-.002Zm3.607 10.464c0 .312.017.619-.003.923-.076 1.208.247 2.453-.353 3.617 1.598.623 3.222.999 4.9 1.097 2.714.159 5.382-.08 7.947-1.074.95-.368 1.843-.844 2.559-1.606.467-.498.73-1.075.713-1.787-.022-.981-.005-1.964-.007-2.946 0-.098-.016-.198-.026-.3-.387.299-.728.593-1.1.84-.371.245-.76.474-1.165.654-3.425 1.52-7 1.733-10.644 1.202-.934-.137-1.851-.404-2.82-.62Zm.019-5.79c-.006.042-.017.09-.017.137 0 1.425.006 2.85-.008 4.273-.002.26.147.296.32.352 1.462.478 2.958.774 4.49.85 2.619.133 5.19-.12 7.662-1.073.94-.363 1.823-.831 2.541-1.57.496-.508.773-1.104.756-1.843-.021-.97-.005-1.94-.006-2.91 0-.09-.012-.182-.013-.198-.73.456-1.425.997-2.201 1.355-3.504 1.61-7.181 1.778-10.92 1.213-.874-.131-1.732-.386-2.603-.586h-.001Zm-1.031 6.369c-.702.393-1.37.834-2.088 1.155-1.47.657-3.034.923-4.627 1.028-2.237.149-4.446-.017-6.595-.718-1.033-.336-1.999-.816-2.89-1.605 0 .876.026 1.668-.008 2.459-.03.712.247 1.258.74 1.72.64.602 1.396 1.004 2.211 1.28 3.282 1.109 6.589 1.124 9.9.147 1.022-.302 2.004-.736 2.738-1.555.278-.31.554-.739.59-1.135.087-.936.029-1.884.029-2.777Zm-16.2-5.034c0 .886.014 1.732-.005 2.578-.013.61.22 1.092.635 1.505.552.55 1.218.921 1.932 1.186 3.366 1.245 6.775 1.28 10.205.314.943-.266 1.836-.66 2.602-1.304.559-.47.889-1.042.847-1.816-.03-.574-.006-1.153-.006-1.73v-.787a7.972 7.972 0 0 1-3.58 1.84c-1.144.264-2.313.495-3.48.554-3.247.164-6.385-.225-9.15-2.338v-.002Z" fill="currentColor" stroke="#9D15A0" stroke-width=".3" mask="url(#a)"/></svg>
